X:1
T:Ned Kendall's Favorite -- Reel
R:reel
B:Ryan's Mammoth Collection
Z:Contributed by Ray Davies,  ray:davies99.freeserve.co.uk
M:2/4
L:1/16
K:D
u(FG)|
A4-A.d.f.d | A4-A.d.f.d | .d.c.B.A .A2(Bc) | .d.c.d.e .f2(EF)|
G4-G.B.d.G | F4-F.A.d.A |  E^DEF    GABc   |  d2d2d2        ::
(cd)|
.e(A^GA) .e(AGA) | .g.A.f.A .e(A^GA) | .d.f.A.d .g.f.e.d | .c.e.d.f =
.e2(cd)|
.e(A^GA) .e(AGA) | .g.A.f.A .e(A^GA) | .F.A.d.f .E.A.c.e | d2f2d2        =
 :|
